!!!COM: Mozart, Wolfgang Amadeus
!!!CDT: 1756/01/27/-1791/12/05/
!!!CNT: German
!!!OTL: Piano Sonata No. 2 in C major
!!!SCT1: K<sup>1</sup> 330
!!!SCT2: K<sup>6</sup> 300h
!!!OMV: Mvmt. 2
!!!OMD: Andante cantabile
!!!ODT: 1782///
**kern	**kern	**dynam
*staff2	*staff1	*staff1/2
*clefF4	*clefG2	*clefG2
*>[A,A,B,B,C,C,D,D,E]	*>[A,A,B,B,C,C,D,D,E]	*>[A,A,B,B,C,C,D,D,E]
*>norep[A,B,C,D,E]	*>norep[A,B,C,D,E]	*>norep[A,B,C,D,E]
*>A	*>A	*>A
*k[b-]	*k[b-]	*k[b-]
*F:	*F:	*F:
*M3/4	*M3/4	*M3/4
*MM88	*MM88	*MM88
8r	(8cc'\L	.
4r	8cc'\	.
.	8cc'\J)	.
=1	=1	=1
2F\ 2A\ 2c\	(8.cc\L	.
.	16ff\Jk	.
.	8cc/L	.
.	8a/	.
4C\ 4G\ 4B-\	8cc/	.
.	8e/J)	.
=2	=2	=2
*^	*^	*
(4B-/	4.D\	(4g/	4.r	.
8A/)	.	8f/)	.	.
4.r	8AA\ (8A\L	(8f/L	4c\	f
.	8GG\ 8G\	8e/ 8g/	.	.
.	8FF\ 8F\J)	8f/ 8a/J)	8c\	.
*v	*v	*	*	*
=3	=3	=3	=3
8D\ (8d\L	(8.b-/L	4.f\	.
8BB-\ 8B-\J)	.	.	.
.	32cc/LL	.	.
.	32dd/JJJ	.	.
8AA\ 8A\	8cc/)	.	.
8r	(8f/L	8r	p
4D\	8e/	4Bn\	.
.	8f/J)	.	.
=4	=4	=4	=4
2C/	4f/ (4a/	2c\	.
.	8e/ 8g/L)	.	.
.	(8g'/	.	f
*clefG2	*	*	*
4c/ 4e/	8g'/	4r	.
.	8g'/J)	.	.
*	*v	*v	*
=5	=5	=5
.	32gQ/	.
2Bn/ 2d/ 2f/	(8.gg\L	.
.	32dd\LL	.
.	32bn\JJJ	.
.	8g/L)	.
.	(8g'/	.
4c/ 4e/	8g'/	.
.	8g'/J)	.
*clefF4	*	*
=6	=6	=6
.	32gQ/	.
4D\ 4F\ (4Bn\	[4gg\	.
4E\ 4G\ 4c\)	(16.gg\LL]	.
.	64aa\LL	p
.	64bbn\JJJJ	.
.	16ccc\LL)	.
.	16bb'\JJ	.
4r	16aa'\LL	.
.	16gg'\	.
.	16ff'\	.
.	16ee'\JJ	.
=7	=7	=7
*^	*^	*
8r	8r	2r	(16cc#\LL	.
.	.	.	16dd\	.
8A/ 8d/	8F\	.	16ff\	.
.	.	.	16aa\JJ)	.
4c/ (4e/	2G\	.	(4.ccn\	.
4d/ 4f/)	.	8r	.	.
.	.	16ee/LL	8bn\	.
.	.	16dd/JJ)	.	.
*v	*v	*	*	*
=8	=8	=8	=8
4c\ 4e\	4cc/	4cc\	.
8C/	8r	8r	.
*	*v	*v	*
=:|!|:	=:|!|:	=:|!|:
*>B	*>B	*>B
8r	8cc\	.
4r	(16dd\LL	.
.	16cc\)	.
.	(16b-\	.
.	16a\JJ)	.
=9	=9	=9
4.c\ 4.e-\	(4g/	.
.	8f#/)	.
8c\ (8e-\L	(8f#/L	<
8B-\ 8d\	8g/	.
8A\ 8c\ 8d\J)	8f#/ 8a/J)	.
=10	=10	=10
*^	*^	*
4c/	4.G\ (4.d\	(4f#/ (4a/	2r	.
8B-/)	.	8g/) 8b-/)	.	p
4.r	8B-\ (8d-\L	(8e/L	.	<
.	8A\ 8c\	8f#/	8r	.
.	8G\ 8B-\ 8c\J)	8g/J)	8en\	.
*v	*v	*	*	*
=11	=11	=11	=11
8F\ 8A\ 8c\L	(8a/L	[2f\	.
8D\J	8b-/	.	.
4AA/	8cc/	.	.
.	8cc#/J)	.	.
8BB-/L	(16ee/LL	8f\L]	p
.	16dd/)	.	.
8GG/J	16ccn/	8g\J	.
.	16b-/JJ	.	.
=12	=12	=12	=12
2C/	(4a/	(4f\	.
.	8g/)	8e\)	.
.	4.r	(8cc'\L	<
4r	.	8cc'\	.
.	.	8cc'\J	.
=13	=13	=13	=13
8.CC/ 8.C/L	4.bb-/	(2.cc\)	f
16DD'/ 16D'/Jk	.	.	.
8EE'/ 8E'/L	.	.	.
8FF'/ 8F'/	8aa/L	.	.
8GG'/ 8G'/	8gg/	.	.
8AA'/ 8A'/J	8a/) 8ff/J	.	.
=14	=14	=14	=14
2BB-\ 2B-\	(4ff/	2g\ 2cc\	.
.	8ee/L)	.	.
.	(8ee-'/	.	.
4r	8ee-'/	4r	.
.	8ee-'/J)	.	.
*	*v	*v	*
=15	=15	=15
4A\ 4c\ 4f\	8.ee-\L	p
.	16ff\Jk	.
4A\ 4c\ 4f\	8gg\L	.
.	(16ff\L	.
.	16ee-\JJ)	.
4A\ 4e-\ 4f\	(16ee-\LL	.
.	16dd\)	.
.	(16dd\	.
.	16cc#\JJ)	.
=16	=16	=16
2B-\ 2d\ 2f\	(4cc#\	.
.	8dd\)	.
.	(16ff\LL	.
.	16een\JJ	.
4r	16gg\LL	.
.	16ff\	.
.	16ee\	.
.	16dd\JJ)	.
=17	=17	=17
*^	*	*
4B-/ (4d/	2F\	(4dd\	.
4A/ 4c/)	.	8ccn\)	.
.	.	(16.ff\LL	.
.	.	32cc\JJk)	.
4r	4r	(16.aa\LL	.
.	.	32ff\k)	.
.	.	(16.cc\	.
.	.	32a\JJk)	.
*v	*v	*	*
=18	=18	=18
*	*^	*
4.E\ 4.G\ 4.c\	4.r	(8.cc\L	f
.	.	16bn\Jk	.
.	.	8b-\)	.
8BB-\ 8B-\L	(8g/L	16.e\LL	.
.	.	32c\JJk	.
8AA\ 8A\	8a/	16.f\LL	.
.	.	32B-\JJk	.
8GG\ 8G\J	8b-/J)	16.g\LL	.
.	.	32B-\JJk	.
=19	=19	=19	=19
*^	*	*	*
8FF/ 8F/	4r	16cc'/LL	8a\	.
.	.	16dd/	.	.
8r	.	16ee'/	8r	.
.	.	16ff'/JJ	.	.
(4A/	2C\	(4.f/	4.c\	p
4B-/)	.	.	.	.
.	.	16a/LL	8e\	.
.	.	16g/JJ	.	.
*v	*v	*	*	*
=20	=20	=20	=20
4F\ 4A\	4f/	4f\)	.
8FF/	8r	8r	.
*	*v	*v	*
=:|!|:	=:|!|:	=:|!|:
*>C	*>C	*>C
*k[b-e-a-d-]	*k[b-e-a-d-]	*k[b-e-a-d-]
=	=	=
8r	(8c'/ 8a-'/L	pp
4r	8c'/ 8a-'/	.
.	8c'/) 8a-'/J	.
=21	=21	=21
16FF/LL	4.c/ 4.a-/	.
16F/	.	.
16F/	.	.
16F/JJ	.	.
16F\LL	.	.
16F\	.	.
16F\	(8B-/ 8g/L	.
16F\JJ	.	.
16F\LL	8d-/ 8b-/	.
16F\	.	.
16F\	8G/) 8en/J	.
16F\JJ	.	.
=22	=22	=22
16FF/LL	4.A-/ 4.f/	.
16F/	.	.
16F/	.	.
16F/JJ	.	.
16F\LL	.	.
16F\	.	.
16F\	8a-'\ (8cc'\L	.
16F\JJ	.	.
16F\LL	8a-'\ 8cc'\	.
16F\	.	.
16F\	8a-'\ 8cc'\J)	.
16F\JJ	.	.
=23	=23	=23
*	*^	*
16EEn/LL	(4.cc/	2.g\	.
16En/	.	.	.
16E/	.	.	.
16E/JJ	.	.	.
16E\LL	.	.	.
16E\	.	.	.
16E\	8dd-/L	.	.
16E\JJ	.	.	.
16E\LL	8cc/	.	.
16E\	.	.	.
16E\	8b-/J)	.	.
16E\JJ	.	.	.
*	*v	*v	*
=24	=24	=24
.	(32ccQ/	.
*	*^	*
16FF/LL	8b-/L)	8g\L	.
16F/	.	.	.
16F/	8a-/J	8f\J	.
16F/JJ	.	.	.
4F\	2r	8r	.
.	.	(8a-\L	.
4r	.	8b-\	.
.	.	8cc\J	.
*	*v	*v	*
=25	=25	=25
8r	8ee-\L	.
8F\ 8A-\ 8d-\L	8dd-\J)	<
8F\ 8A-\ 8d-\	8r	.
.	32ccQ/	.
8F\ 8A-\ 8d-\	8dd-\L	.
.	32ccQ/	.
8F\ 8A-\ 8d-\	8dd-\	.
.	32ccQ/	.
8F\ 8A-\ 8d-\J	8dd-\J	.
=26	=26	=26
2G\ 2B-\ 2d-\ 2e-\	(8dd-\L	f
.	32ee-Q/LLL	.
.	32dd-Q/	.
.	32ccQ/JJJ	.
.	16dd-\L	.
.	16ee-\JJ	.
.	4.ff\)	.
4r	.	.
.	(16ee-\LL	p
.	16dd-\JJ	.
=27	=27	=27
*^	*^	*
8r	8A-\L	16cc\LL	2r	.
.	.	16ee-\	.	.
8B-/	8D-\J	16dd-\	.	.
.	.	16b-\JJ)	.	.
(4c/	2E-\	(4.a-/	.	.
4d-/)	.	.	8r	.
.	.	16cc/LL	8g\	.
.	.	16b-/JJ)	.	.
*v	*v	*	*	*
=28	=28	=28	=28
4A-\ 4c\	4a-/	4a-\	.
8AA-/	8r	8r	.
*	*v	*v	*
=:|!|:	=:|!|:	=:|!|:
*>D	*>D	*>D
8r	(8e-/L	.
4r	8a-/	.
.	8cc/J)	.
=29	=29	=29
8r	(4.ee-\	.
(8A-\L	.	.
8c\	.	.
8e-\	16dd-\LL	.
.	16cc\JJ	.
8F\	8b-/L)	.
8dn\J)	8a-'/J	.
=30	=30	=30
8r	(4cc\	.
(8E-\L	.	.
8G\	8b-\)	.
8En\ 8B-\J	(8c/L	.
4F\ 4A-\)	8f/	.
.	8a-/J)	.
=31	=31	=31
*^	*	*
8r	8r	(4.cc\	.
([8D-/L	8D-\	.	.
8F/	2D-\]	.	.
8A-/	.	16b-/LL	.
.	.	16a-/JJ	.
8B-/	.	8g/L)	p
8Bn/J)	.	8f'/J	.
*v	*v	*	*
=32	=32	=32
4.C\ 4.c\	(4f/ (4a-/	.
.	8en/) 8g/)	<
8r	(8cc\L	.
8r	8ff\	.
(8AA-/	8aa-\J)	.
=33	=33	=33
8BB-\L	(8gg\L	.
8B-\J)	8ff\J)	.
(8Bn\L	8r	.
8c\J)	(8cc\L	.
8r	8ff\	.
(8C/	8aa-\J)	.
=34	=34	=34
8D-\L	(8gg\L	.
8d-\J	8ff\J)	.
8e-\)	8r	.
8C'\ 8c'\L	8an'\ 8cc'\ 8ee-'\ (8ff'\L	f
8AAn'\ 8An'\	8a'\ 8cc'\ 8ee-'\ 8ff'\	.
8FF'\ 8F'\J	8a'\ 8cc'\ 8ee-'\ 8ff'\J)	.
=35	=35	=35
*	*^	*
4BB-\ 4B-\	2r	16dd-\ (16ff\LL	.
.	.	16b-\ 16dd-\)	.
.	.	16b-\ (16dd-\	.
.	.	16g\ 16b-\JJ)	.
4C\ 4c\	.	4f/ 4a-/	.
4C/	(16a-/LL	4en\	.
.	16g/	.	.
.	16f/	.	.
.	16g/JJ)	.	.
=36	=36	=36	=36
4F\	4f/	4f\	.
8FF/	8r	8r	.
*	*v	*v	*
=:|!	=:|!	=:|!
*>E	*>E	*>E
8r	(8c'/ 8a-'/L	pp
4r	8c'/ 8a-'/	.
.	8c'/) 8a-'/J	.
=37	=37	=37
16FF/LL	4.c/ 4.a-/	.
16F/	.	.
16F/	.	.
16F/JJ	.	.
16F\LL	.	.
16F\	.	.
16F\	(8B-/ 8g/L	.
16F\JJ	.	.
16F\LL	8d-/ 8b-/	.
16F\	.	.
16F\	8G/) 8en/J	.
16F\JJ	.	.
=38	=38	=38
16FF/LL	4.A-/ 4.f/	.
16F/	.	.
16F/	.	.
16F/JJ	.	.
16F\LL	.	.
16F\	.	.
16F\	8a-'\ (8cc'\L	.
16F\JJ	.	.
16F\LL	8a-'\ 8cc'\	.
16F\	.	.
16F\	8a-'\ 8cc'\J)	.
16F\JJ	.	.
=39	=39	=39
*	*^	*
16FF/LL	4.a-/ (4.cc/	[2en\	.
16F/	.	.	.
16F/	.	.	.
16F/JJ	.	.	.
16F\LL	.	.	.
16F\	.	.	.
16F\	8g/ 8b-/L)	.	.
16F\JJ	.	.	.
16F\LL	8b-/ 8dd-/	8e\L]	.
16F\	.	.	.
16F\	8c/ 8en/J	8B-\J	.
16F\JJ	.	.	.
*	*v	*v	*
=40	=40	=40
4F\	4A-/ 4c/ 4f/	.
8r	8r	.
*k[b-]	*k[b-]	*k[b-]
*k[b-]	*k[b-]	*k[b-]
8r	(8cc'\L	.
4r	8cc'\	.
.	8cc'\J)	.
=41	=41	=41
2F\ 2A\ 2c\	(8.cc\L	.
.	16ff\Jk	.
.	8cc/L	.
.	8a/	.
4C\ 4G\ 4B-\	8cc/	.
.	8e/J)	.
=42	=42	=42
*^	*^	*
(4B-/	4.D\	(4g/	4.r	.
8A/)	.	8f/)	.	.
(8AA/ 8A/L	4.r	(8f/L	4c\	f
8GG/ 8G/	.	8e/ 8g/	.	.
8FF/) 8F/J	.	8f/ 8a/J)	8c\	.
*v	*v	*	*	*
=43	=43	=43	=43
8D\ 8d\L	(8.b-/L	4.f\	.
8BB-\ 8B-\J	.	.	.
.	32cc/LL	.	.
.	32dd/JJJ	.	.
8AA\ 8A\	8cc/)	.	.
8r	(8f/L	8r	p
4D\	8e/	4Bn\	.
.	8f/J)	.	.
=44	=44	=44	=44
2C/	4f/ (4a/	2c\	.
.	8e/ 8g/L)	.	.
.	(8g'/	.	f
*clefG2	*	*	*
4c/ 4e/	8g'/	4r	.
.	8g'/J)	.	.
*	*v	*v	*
=45	=45	=45
.	gQ/	.
2Bn/ 2d/ 2f/	(8.gg\L	.
.	32dd\LL	.
.	32bn\JJJ	.
.	8g/L)	.
.	(8g'/	.
4c/ 4e/	8g'/	.
.	8g'/J)	.
*clefF4	*	*
=46	=46	=46
.	32gQ/	.
4D\ 4F\ (4Bn\	[4gg\	.
4E\ 4G\ 4c\)	16.gg\LL]	.
.	(64aa\LL	p
.	64bbn\JJJJ	.
.	16ccc\LL)	.
.	16bb\JJ	.
4r	16aa'\LL	.
.	16gg'\	.
.	16ff'\	.
.	16ee'\JJ	.
=47	=47	=47
*^	*^	*
8r	8r	2r	(16cc#\LL	.
.	.	.	16dd\	.
8A/ 8d/	8F\	.	16ff\	.
.	.	.	16aa\JJ)	.
4c/ (4e/	2G\	.	(4.ccn\	.
4d/ 4f/)	.	8r	.	.
.	.	16ee/LL	8bn\	.
.	.	16dd/JJ)	.	.
*v	*v	*	*	*
=48	=48	=48	=48
4c\ 4e\	4cc/	4cc\	.
8C/	2r	8r	.
8r	.	8cc\	.
4r	.	(16dd\LL	.
.	.	16cc\)	.
.	.	(16b-\	.
.	.	16a\JJ)	.
*	*v	*v	*
=49	=49	=49
4.c\ 4.e-\	(4g/	.
.	8f#/)	.
8c\ (8e-\L	(8f#/L	<
8B-\ 8d\	8g/	.
8A\ 8c\ 8d\J)	8f#/ 8a/J)	.
=50	=50	=50
*^	*	*
(4c/	4.G\ 4.d\	(4f#/ (4a/	.
8B-/)	.	8g/) 8b-/)	p
4.r	8B-\ (8d-\L	(8e/L	<
.	8A\ 8c\	8fn/	.
.	8G\ 8B-\ 8c\J)	8g/J)	.
*v	*v	*	*
=51	=51	=51
*	*^	*
8F\ 8A\ 8c\L	(8a/L	[2f\	.
8D\J	8b-/	.	.
4AA/	8cc/	.	.
.	8cc#/J)	.	.
8BB-/L	(16ee/LL	8f\L]	.
.	16dd/	.	p
8GG/J	(16ccn/)	8g\J	.
.	16b-/JJ	.	.
*	*v	*v	*
=52	=52	=52
2C/	(4f/ 4a/)	.
.	8e/) 8g/	.
.	(8cc'\L	<
4r	8cc'\	.
.	8cc'\J)	.
=53	=53	=53
*	*^	*
8.CC/ 8.C/L	4.bb-/	[2.cc\	f
16DD'/ 16D'/Jk	.	.	.
8EE'/ 8E'/L	.	.	.
8FF'/ 8F'/	8aa/L	.	.
8GG'/ 8G'/	8gg/	.	.
8AA'/ 8A'/J	8a/ 8ff/J	.	.
=54	=54	=54	=54
2BB-\ 2B-\	(4ff/	2g\ 2cc\]	.
.	8ee/L)	.	.
.	(8ee-'/	.	.
4r	8ee-'/	4r	.
.	8ee-'/J)	.	.
*	*v	*v	*
=55	=55	=55
4A\ 4c\ 4f\	8.ee-\L	p
.	16ff\Jk	.
4A\ 4c\ 4f\	8gg\L	.
.	(16ff\L	.
.	16ee-\JJ)	.
4A\ 4e-\ 4f\	(16ee-\LL	.
.	16dd\)	.
.	(16dd\	.
.	16cc#\JJ)	.
=56	=56	=56
2B-\ 2d\ 2f\	(4cc#\	.
.	8dd\)	.
.	(16ff\LL	.
.	16een\JJ	.
4r	16gg\LL	.
.	16ff\	.
.	16ee\	.
.	16dd\JJ)	.
=57	=57	=57
*^	*	*
4B-/ (4d/	2F\	(4dd\	.
4A/ 4c/)	.	8ccn\)	.
.	.	(16.ff\LL	.
.	.	32cc\JJk)	<
4r	4r	(16.aa\LL	.
.	.	32ff\k)	.
.	.	(16.cc\	.
.	.	32a\JJk)	.
*v	*v	*	*
=58	=58	=58
*	*^	*
4.E\ 4.G\ 4.c\	4.r	(8.cc\L	f
.	.	16bn\Jk	.
.	.	8b-\)	.
8BB-\ 8B-\L	(8g/L	16.e\LL	.
.	.	32c\JJk	.
8AA\ 8A\	8a/	16.f\LL	.
.	.	32c\JJk	.
8GG\ 8G\J	8b-/J)	16.g\LL	.
.	.	32c\JJk	.
=59	=59	=59	=59
*^	*	*	*
8FF/ 8F/	4r	16cc'/LL	4a\	.
.	.	16dd'/	.	.
8r	.	16ee'/	.	.
.	.	16ff'/JJ	.	.
(4A/	2C\	(4.f/	8r	p
.	.	.	4c\	.
4B-/)	.	.	.	.
.	.	16a/LL	8e\	.
.	.	16g/JJ	.	.
*v	*v	*	*	*
=60	=60	=60	=60
4F\ 4A\	4f/	4f\)	.
8FF/	8r	2r	.
8r	(8c'/ 8a'/L	.	pp
4r	8c'/ 8a'/	.	.
.	8c'/) 8a'/J	.	.
*	*v	*v	*
=61	=61	=61
16FF/LL	4.c/ 4.a/	.
16F/	.	.
16F/	.	.
16F/JJ	.	.
16F\LL	.	.
16F\	.	.
16F\	(8A/ 8f/L	.
16F\JJ	.	.
16F\LL	8g/ 8b-/	.
16F\	.	.
16F\	8e/) 8g/J	.
16F\JJ	.	.
=62	=62	=62
16FF/LL	4a\ 4cc\	.
16F/	.	.
16F/	.	.
16F/JJ	.	.
16DD/LL	8r	.
16D/	.	.
16D/	8a'\ (8ff'\L	<
16D/JJ	.	.
16BBBn/LL	8a'\ 8ff'\	.
16BBn/	.	.
16BB/	8a'\ 8ff'\J)	.
16BB/JJ	.	.
=63	=63	=63
16CC/LL	4.f/ 4.a/	pp
16C/	.	.
16C/	.	.
16C/JJ	.	.
16C/LL	.	.
16C/	.	.
16C/	(8a/ 8cc/L	.
16C/JJ	.	.
16C/LL	8g/ 8b-/	.
16C/	.	.
16C/	8B-/) 8g/J	.
16C/JJ	.	.
=64	=64	=64
4FF/	4A/ 4f/	.
8r	8r	.
==	==	==
*-	*-	*-
!!!SMS: Alte Mozart-Ausgabe, Band 20, Breitkopf &amp; H&auml;rtel 1877-1883.
!!!ONB: Stich und Druck von Breitkopf &amp; H&auml;rtel in Leipzig
!!!ONB: Ausgegeben 1878
!!!ENC: Craig Stuart Sapp
!!!END: 2009/10/08/
!!!title: @{OTL}, K 330 (300h), @{OMV}
!!!hum2abc: --no-tempo -s 0.65 --spacing 2.0 -p "%gracespace  0 6.0 12.0"
